X: 10364
T: HARVEST HOME
C:
%R: waltz
B: Elias Howe "The Musician's Companion" Part 1 1842 p.36 #4
S: http://imslp.org/wiki/The_Musician's_Companion_(Howe,_Elias)
Z: 2015 John Chambers <jc:trillian.mit.edu>
M: 3/4
L: 1/4
K: D
% - - - - - - - - - - - - - - - - - - - - - - - - -
z |\
(Af)e | (dF)A | (GE)c | (df)A |\
A(fe) | (dF)A | (GE)c | d2 :|\
A |\
(GE)c | (df)A | (GE)c | (df)z |\
(Af)e | dFA | GEc | d2 |]
% - - - - - - - - - - - - - - - - - - - - - - - - -


